!!!COM:	Martini, Johannes
!!!CDT:	~1440///-~1497//
!!!OTL:	Jesu corona virginum
!!!AGN:	Motet
!!!SCT:	Mar2055
!!!SCA:	Mar2055
!!!voices:	3
**kern	**kern	**kern
*staff3	*staff2	*staff1
*Ivox	*Ivox	*Ivox
*I"Tenor	*I"Contra	*I"Superius
*I'T	*I'C	*I'S
*clefF4	*clefGv2	*clefG2
*k[]	*k[]	*k[]
*M2/1	*M2/1	*M2/1
*met(C|)	*met(C|)	*met(C|)
!!section: Jesu, corona virginum
!!!OMD: Jesu, corona virginum
=1-	=1-	=1-
0r	0r	1d
.	.	1e
=2	=2	=2
0r	0r	1f
.	.	1f
=3	=3	=3
0r	1r	1e
.	1d	2d/
.	.	2f/
=4	=4	=4
0r	1e	2g/
.	.	1e
.	1f	.
.	.	4d/
.	.	4c/
=5	=5	=5
0r	1f	1d
.	1e	1e
=6	=6	=6
1D	2d\	0r
.	2f\	.
1E	2g\	.
.	[2e\	.
=7	=7	=7
1F	2e\]	0r
.	4d\	.
.	4c\	.
1F	1d	.
=8	=8	=8
1E	2e\	1g
.	2c\	.
1r	2.d\	1f
.	4c\	.
=9	=9	=9
1G	1B	2e/
.	.	2.d/
1F	2.A/	.
.	.	4c/
.	.	2d/
.	4B\	.
=10	=10	=10
2E\	2c\	2e/
1D	2d\	2f/
.	2f\	1a
2C/	[2e\	.
=11	=11	=11
2E\	2e\]	2g/
2F\	4d\	1f
.	4c\	.
1G	1B	.
.	.	2e/
=12	=12	=12
0F	1c	1f
.	1c	1r
=13	=13	=13
0r	1A	1f
.	1B	1d
=14	=14	=14
1r	1c	1e
1F	1A	2f/
.	.	[2a/
=15	=15	=15
1D	1B	2a/]
.	.	4g/
.	.	4f/
1E	1B	4g/
.	.	4f/
.	.	4e/
.	.	4d/
=16	=16	=16
1F	1A	2c/
.	.	2d/
2E\	1r	2e/
[2F\	.	[2A/
=17	=17	=17
4F\]	1c	4A/]
4G\	.	4B/
1A	.	4c/
.	.	4d/
.	2c\	2e/
2D\	[2d\	[2f/
=18	=18	=18
2F\	4d\]	4f/]
.	4c\	4e/
2G\	4B\	1d
.	4A/	.
1E	2.G/	.
.	.	2c#i/
.	4F/	.
=19	=19	=19
0D	1A	1d
.	2A/	1r
.	[2B\	.
=20	=20	=20
0r	4B\]	1d
.	4c\	.
.	1d	.
.	.	1e
.	2c\	.
=21	=21	=21
1r	2d\	1f
.	4c\	.
.	4B\	.
1D	1A	1f
=22	=22	=22
1E	2r	2e/
.	2e\	2g/
1F	2d\	2a/
.	2c\	[2cc\
=23	=23	=23
1F	1A	4cc\]
.	.	4b\
.	.	1a
1E	1B	.
.	.	2g#i/
=24	=24	=24
1r	1A	1a
1G	1B	1r
=25	=25	=25
2A\	2c\	1r
2G\	2d\	.
1E	1e	1g
=26	=26	=26
2F\	2d\	2a/
1G	1B	2g/
.	.	1e
[2A\	[2c\	.
=27	=27	=27
2A\]	2c\]	2f/
2B\	2d\	1g
2c\	2e\	.
2A\	[2c\	[2f/
=28	=28	=28
1G	2c\]	2f/]
.	2B\	2e/
1F	1c	1f
=29	=29	=29
1F	2c\	0r
.	1d	.
1D	.	.
.	[2B\	.
=30	=30	=30
1E	2B\]	1r
.	1c	.
1F	.	1f
.	[2A/	.
=31	=31	=31
2F\	2A/]	1d
2.G\	2G/	.
.	2B\	1e
4F\	.	.
2E\	2c\	.
=32	=32	=32
2D\	2.d\	1f
1F	.	.
.	4c\	.
.	2A/	2f/
4E\	2B\	[2g/
4D\	.	.
=33	=33	=33
1C	1c	4g/]
.	.	4f/
.	.	2e/
1D	[1A	2d/
.	.	[2f/
=34	=34	=34
0E	1A]	2f/]
.	.	4e/
.	.	4d/
.	1G	2.c#i/
.	.	4B/
=35	=35	=35
0Dl	0Al	0dl
==	==	==
*-	*-	*-
!!!RDF**kern: l=long note in original notation
!!!RDF**kern: i=editorial accidental
!!!ENC:	Chris Gage 08-19-2014
!!!END:	2014/10/05/
!!!EED:	Jesse Rodin
!!!EEV:	2014/10/18/
!!!ONB:	Translated from MusicXML and edited on 2014/10/18/ by Craig Sapp
!!muse2ps: C^@{COM}^i2I150v85,85,150Q16
